dist/svgs/crypto-icons/icons/xbs.svg

<?xml version="1.0" encoding="UTF-8" standalone="yes"?>
<svg xmlns="http://www.w3.org/2000/svg" xmlns:xlink="http://www.w3.org/1999/xlink" width="512px" height="512px" viewBox="0 0 384 384" version="1.1">
  <g id="surface1">
    <path style=" stroke:none;fill-rule:nonzero;fill:rgb(0%,0%,0%);fill-opacity:1;" d="M 299.710938 84.273438 C 312.273438 89.136719 324.050781 94.886719 334.832031 101.476562 C 339.972656 104.605469 344.949219 107.992188 349.742188 111.628906 C 348.75 89.074219 341.261719 70.109375 327.570312 56.417969 C 314.058594 42.914062 295.0625 35.320312 272.394531 34.292969 C 276.015625 39.074219 279.390625 44.035156 282.511719 49.15625 C 289.101562 59.9375 294.851562 71.714844 299.710938 84.273438 Z M 246.941406 23.707031 C 230.300781 8.476562 211.609375 0.371094 192.253906 0.371094 C 172.894531 0.371094 154.199219 8.476562 137.558594 23.707031 C 155.363281 26.09375 173.828125 31.550781 192.253906 39.710938 C 210.683594 31.550781 229.144531 26.09375 246.941406 23.707031 Z M 84.792969 84.277344 C 89.65625 71.714844 95.40625 59.9375 101.992188 49.15625 C 105.113281 44.035156 108.488281 39.074219 112.109375 34.292969 C 89.441406 35.320312 70.441406 42.914062 56.9375 56.417969 C 43.242188 70.109375 35.757812 89.074219 34.761719 111.628906 C 39.558594 107.996094 44.535156 104.605469 49.671875 101.476562 C 60.457031 94.886719 72.230469 89.140625 84.792969 84.277344 Z M 290.527344 290.007812 C 293.738281 281.09375 296.457031 272.007812 298.664062 262.792969 C 293.222656 269.113281 287.546875 275.230469 281.652344 281.132812 C 275.746094 287.03125 269.621094 292.707031 263.292969 298.152344 C 272.515625 295.945312 281.605469 293.222656 290.527344 290.007812 Z M 167.585938 317.25 C 175.566406 322.117188 183.800781 326.550781 192.253906 330.542969 C 200.707031 326.550781 208.941406 322.113281 216.921875 317.25 C 208.796875 317.851562 200.566406 318.164062 192.253906 318.164062 C 183.941406 318.164062 175.710938 317.851562 167.585938 317.25 Z M 137.558594 359.765625 C 154.199219 374.992188 172.894531 383.101562 192.253906 383.101562 C 211.609375 383.101562 230.304688 374.992188 246.949219 359.765625 C 229.148438 357.378906 210.683594 351.917969 192.253906 343.757812 C 173.828125 351.917969 155.363281 357.378906 137.558594 359.765625 Z M 299.710938 299.195312 C 294.847656 311.753906 289.101562 323.53125 282.511719 334.316406 C 279.390625 339.4375 276.015625 344.398438 272.394531 349.175781 C 295.0625 348.148438 314.058594 340.558594 327.570312 327.054688 C 341.261719 313.355469 348.75 294.394531 349.742188 271.839844 C 344.945312 275.476562 339.96875 278.867188 334.832031 282 C 324.046875 288.585938 312.269531 294.332031 299.710938 299.195312 Z M 27.609375 154.738281 C 26.191406 148.894531 25.070312 142.976562 24.246094 137.015625 C 9.007812 153.667969 0.886719 172.371094 0.886719 191.734375 C 0.886719 211.09375 9.003906 229.804688 24.246094 246.453125 C 25.070312 240.492188 26.191406 234.574219 27.609375 228.726562 C 30.578125 216.445312 34.835938 204.050781 40.28125 191.730469 C 34.835938 179.414062 30.578125 167.023438 27.609375 154.738281 Z M 360.257812 137.015625 C 359.4375 142.976562 358.3125 148.894531 356.898438 154.742188 C 353.929688 167.023438 349.667969 179.414062 344.226562 191.734375 C 349.667969 204.054688 353.929688 216.449219 356.898438 228.730469 C 358.355469 234.769531 359.46875 240.675781 360.257812 246.457031 C 375.5 229.808594 383.617188 211.101562 383.617188 191.738281 C 383.617188 172.371094 375.5 153.664062 360.257812 137.015625 Z M 93.980469 290.007812 C 102.898438 293.226562 111.992188 295.945312 121.210938 298.148438 C 108.550781 287.265625 96.730469 275.445312 85.839844 262.792969 C 88.046875 272.007812 90.765625 281.09375 93.980469 290.007812 Z M 84.792969 299.195312 C 72.230469 294.332031 60.457031 288.582031 49.671875 282 C 44.535156 278.867188 39.558594 275.476562 34.761719 271.839844 C 35.757812 294.394531 43.242188 313.355469 56.9375 327.054688 C 70.441406 340.558594 89.441406 348.148438 112.109375 349.175781 C 108.488281 344.394531 105.113281 339.4375 101.992188 334.316406 C 95.40625 323.53125 89.65625 311.753906 84.792969 299.195312 Z M 53.273438 191.734375 C 57.304688 200.3125 61.808594 208.65625 66.761719 216.734375 C 66.136719 208.417969 65.824219 200.078125 65.828125 191.734375 C 65.828125 183.3125 66.144531 174.96875 66.761719 166.734375 C 61.808594 174.8125 57.304688 183.160156 53.273438 191.734375 Z M 349.488281 126.605469 C 343.320312 121.304688 336.371094 116.277344 328.664062 111.566406 C 321.242188 107.03125 313.308594 102.925781 304.957031 99.238281 C 309.160156 112.515625 312.441406 126.503906 314.734375 140.996094 C 323.363281 152.867188 330.9375 165.078125 337.347656 177.445312 C 340.652344 168.929688 343.355469 160.417969 345.398438 151.960938 C 347.519531 143.183594 348.875 134.710938 349.488281 126.605469 Z M 304.957031 284.230469 C 313.308594 280.546875 321.246094 276.441406 328.667969 271.902344 C 336.375 267.195312 343.324219 262.160156 349.492188 256.863281 C 348.882812 248.757812 347.519531 240.285156 345.398438 231.503906 C 343.359375 223.054688 340.65625 214.539062 337.351562 206.023438 C 330.941406 218.390625 323.363281 230.601562 314.738281 242.46875 C 312.441406 256.964844 309.164062 270.953125 304.957031 284.230469 Z M 331.230469 191.734375 C 327.199219 183.15625 322.695312 174.8125 317.738281 166.734375 C 318.359375 174.96875 318.675781 183.3125 318.675781 191.734375 C 318.675781 200.15625 318.359375 208.5 317.742188 216.738281 C 322.695312 208.660156 327.199219 200.3125 331.230469 191.734375 Z M 243.019531 69.25 C 257.5 71.546875 271.480469 74.824219 284.746094 79.03125 C 281.0625 70.675781 276.957031 62.742188 272.421875 55.320312 C 267.71875 47.628906 262.695312 40.683594 257.410156 34.527344 C 241.230469 35.734375 224.082031 39.925781 206.753906 46.6875 C 219.007812 53.074219 231.160156 60.625 243.019531 69.25 Z M 141.488281 314.21875 C 127.007812 311.925781 113.027344 308.644531 99.761719 304.441406 C 103.441406 312.792969 107.550781 320.730469 112.085938 328.152344 C 116.785156 335.84375 121.808594 342.785156 127.097656 348.941406 C 143.277344 347.734375 160.421875 343.542969 177.757812 336.78125 C 165.5 330.398438 153.34375 322.84375 141.488281 314.21875 Z M 99.757812 79.03125 C 113.019531 74.824219 127.003906 71.550781 141.484375 69.25 C 153.339844 60.625 165.496094 53.074219 177.753906 46.691406 C 160.417969 39.925781 143.273438 35.734375 127.09375 34.53125 C 121.804688 40.683594 116.785156 47.628906 112.082031 55.320312 C 107.550781 62.742188 103.441406 70.675781 99.757812 79.03125 Z M 121.207031 85.324219 C 111.988281 87.53125 102.898438 90.246094 93.980469 93.460938 C 90.765625 102.375 88.046875 111.460938 85.839844 120.675781 C 91.28125 114.351562 96.957031 108.234375 102.855469 102.339844 C 108.757812 96.4375 114.878906 90.761719 121.207031 85.324219 Z M 79.546875 99.238281 C 71.191406 102.925781 63.257812 107.03125 55.839844 111.566406 C 48.132812 116.277344 41.179688 121.304688 35.015625 126.605469 C 35.625 134.710938 36.984375 143.183594 39.101562 151.960938 C 41.144531 160.414062 43.851562 168.933594 47.152344 177.441406 C 53.566406 165.078125 61.136719 152.867188 69.761719 140.996094 C 72.058594 126.503906 75.335938 112.515625 79.546875 99.238281 Z M 35.015625 256.863281 C 41.179688 262.160156 48.132812 267.195312 55.839844 271.902344 C 63.257812 276.441406 71.191406 280.546875 79.546875 284.230469 C 75.339844 270.953125 72.058594 256.964844 69.765625 242.46875 C 61.140625 230.601562 53.566406 218.390625 47.152344 206.023438 C 43.851562 214.535156 41.148438 223.050781 39.105469 231.503906 C 36.984375 240.285156 35.625 248.757812 35.015625 256.863281 Z M 298.664062 120.675781 C 296.394531 111.277344 293.683594 102.179688 290.523438 93.460938 C 281.605469 90.246094 272.511719 87.527344 263.292969 85.320312 C 269.621094 90.761719 275.746094 96.4375 281.648438 102.335938 C 287.601562 108.292969 293.28125 114.414062 298.664062 120.675781 Z M 192.253906 52.925781 C 183.800781 56.917969 175.566406 61.355469 167.582031 66.21875 C 184.007812 65.003906 200.5 65.003906 216.921875 66.21875 C 208.941406 61.355469 200.707031 56.917969 192.253906 52.925781 Z M 284.746094 304.445312 C 271.480469 308.644531 257.5 311.921875 243.015625 314.21875 C 231.160156 322.84375 219.007812 330.394531 206.753906 336.777344 C 224.085938 343.542969 241.226562 347.730469 257.40625 348.9375 C 262.695312 342.78125 267.71875 335.839844 272.417969 328.148438 C 276.953125 320.730469 281.0625 312.792969 284.746094 304.445312 Z M 251.382812 217.589844 C 251.382812 206.152344 246.714844 195.789062 239.1875 188.296875 C 245.023438 181.421875 248.226562 172.691406 248.21875 163.671875 C 248.21875 142.613281 231.085938 125.480469 210.03125 125.480469 L 144.203125 125.480469 C 137.128906 125.480469 131.394531 131.214844 131.390625 138.289062 L 131.390625 246.210938 C 131.390625 253.289062 137.128906 259.027344 144.203125 259.027344 L 210.03125 259.027344 C 210.609375 259.027344 211.171875 258.972656 211.730469 258.898438 C 233.746094 258 251.382812 239.824219 251.382812 217.589844 Z M 157.019531 151.105469 L 210.03125 151.105469 C 216.957031 151.105469 222.597656 156.742188 222.597656 163.671875 C 222.597656 170.597656 216.957031 176.234375 210.03125 176.234375 L 157.019531 176.234375 Z M 210.03125 233.316406 C 209.550781 233.316406 209.078125 233.351562 208.609375 233.402344 L 157.019531 233.402344 L 157.019531 201.863281 L 210.03125 201.863281 C 218.699219 201.863281 225.757812 208.917969 225.757812 217.589844 C 225.757812 226.261719 218.699219 233.316406 210.03125 233.316406 Z M 210.03125 233.316406 "/>
  </g>
</svg>

<svg xmlns="http://www.w3.org/2000/svg" viewBox="0 0 384 384"><path d="M299.71 84.273c12.563 4.864 24.34 10.614 35.122 17.204a176.356 176.356 0 0114.91 10.152c-.992-22.555-8.48-41.52-22.172-55.211-13.511-13.504-32.507-21.098-55.175-22.125a178.355 178.355 0 0110.117 14.863c6.59 10.782 12.34 22.559 17.199 35.117zm-52.769-60.566C230.301 8.477 211.61.371 192.254.371c-19.36 0-38.055 8.106-54.695 23.336 17.804 2.387 36.27 7.844 54.695 16.004 18.43-8.16 36.89-13.617 54.687-16.004zM84.793 84.277c4.863-12.562 10.613-24.34 17.2-35.12a178.355 178.355 0 0110.116-14.864c-22.668 1.027-41.668 8.621-55.171 22.125-13.696 13.691-21.18 32.656-22.176 55.21a178.566 178.566 0 0114.91-10.151c10.785-6.59 22.558-12.336 35.121-17.2zm205.734 205.73c3.211-8.913 5.93-18 8.137-27.214a338.474 338.474 0 01-17.012 18.34 337.552 337.552 0 01-18.359 17.02 256.295 256.295 0 0027.234-8.145zM167.586 317.25c7.98 4.867 16.215 9.3 24.668 13.293a264.284 264.284 0 0024.668-13.293c-8.125.602-16.356.914-24.668.914-8.313 0-16.543-.312-24.668-.914zm-30.027 42.516c16.64 15.226 35.336 23.336 54.695 23.336 19.355 0 38.05-8.11 54.695-23.336-17.8-2.387-36.265-7.848-54.695-16.008-18.426 8.16-36.89 13.62-54.695 16.008zm162.152-60.57c-4.863 12.558-10.61 24.335-17.2 35.12a177.646 177.646 0 01-10.116 14.86c22.668-1.028 41.664-8.617 55.175-22.121 13.692-13.7 21.18-32.66 22.172-55.215a178.653 178.653 0 01-14.91 10.16c-10.785 6.586-22.562 12.332-35.121 17.195zM27.609 154.737a179.344 179.344 0 01-3.363-17.722C9.008 153.668.886 172.37.886 191.734c0 19.36 8.118 38.07 23.36 54.72a179.636 179.636 0 013.363-17.727c2.97-12.282 7.227-24.676 12.672-36.997-5.445-12.316-9.703-24.707-12.672-36.992zm332.649-17.722a179.622 179.622 0 01-3.36 17.726c-2.968 12.281-7.23 24.672-12.671 36.992 5.441 12.32 9.703 24.715 12.671 36.996a178.45 178.45 0 013.36 17.727c15.242-16.648 23.36-35.355 23.36-54.719 0-19.367-8.118-38.074-23.36-54.722zM93.98 290.008a254.4 254.4 0 0027.23 8.14 333.62 333.62 0 01-35.37-35.355 255.938 255.938 0 008.14 27.215zm-9.187 9.187C72.23 294.332 60.457 288.582 49.672 282a178.653 178.653 0 01-14.91-10.16c.996 22.555 8.48 41.515 22.175 55.215 13.504 13.504 32.504 21.093 55.172 22.12a178.291 178.291 0 01-10.117-14.859c-6.586-10.785-12.336-22.562-17.199-35.12zm-31.52-107.46a256.675 256.675 0 0013.489 25 331.536 331.536 0 01-.934-25c0-8.423.317-16.766.934-25a257.129 257.129 0 00-13.489 25zm296.215-65.13c-6.168-5.3-13.117-10.328-20.824-15.039-7.422-4.535-15.355-8.64-23.707-12.328 4.203 13.278 7.484 27.266 9.777 41.758 8.63 11.871 16.204 24.082 22.614 36.45 3.304-8.516 6.007-17.028 8.05-25.485 2.122-8.777 3.477-17.25 4.09-25.356zM304.957 284.23c8.352-3.683 16.29-7.789 23.711-12.328 7.707-4.707 14.656-9.742 20.824-15.039-.61-8.105-1.972-16.578-4.094-25.36-2.039-8.448-4.742-16.964-8.046-25.48-6.41 12.368-13.989 24.579-22.614 36.446-2.297 14.496-5.574 28.484-9.781 41.761zm26.273-92.496a255.87 255.87 0 00-13.492-25 334.757 334.757 0 01.004 50.004 256.737 256.737 0 0013.488-25.004zM243.02 69.25c14.48 2.297 28.46 5.574 41.726 9.781-3.683-8.355-7.789-16.289-12.324-23.71-4.703-7.692-9.727-14.637-15.012-20.794-16.18 1.207-33.328 5.399-50.656 12.16 12.254 6.387 24.406 13.938 36.266 22.563zM141.488 314.219c-14.48-2.293-28.46-5.574-41.726-9.778 3.68 8.352 7.789 16.29 12.324 23.711 4.7 7.692 9.723 14.633 15.012 20.79 16.18-1.208 33.324-5.399 50.66-12.16-12.258-6.384-24.414-13.938-36.27-22.563zM99.758 79.03c13.262-4.207 27.246-7.48 41.726-9.781 11.856-8.625 24.012-16.176 36.27-22.559-17.336-6.765-34.48-10.957-50.66-12.16-5.29 6.153-10.309 13.098-15.012 20.79-4.531 7.421-8.64 15.355-12.324 23.71zm21.449 6.293A256.12 256.12 0 0093.98 93.46c-3.214 8.914-5.933 18-8.14 27.215a332.626 332.626 0 0117.015-18.336 331.31 331.31 0 0118.352-17.016zm-41.66 13.914c-8.356 3.688-16.29 7.793-23.707 12.328-7.707 4.711-14.66 9.739-20.824 15.04.609 8.105 1.968 16.578 4.086 25.355 2.043 8.453 4.75 16.973 8.05 25.48 6.414-12.363 13.985-24.574 22.61-36.445 2.297-14.492 5.574-28.48 9.785-41.758zM35.016 256.863c6.164 5.297 13.117 10.332 20.824 15.04 7.418 4.538 15.351 8.644 23.707 12.327-4.207-13.277-7.488-27.265-9.781-41.761-8.625-11.867-16.2-24.078-22.614-36.446-3.3 8.512-6.004 17.028-8.047 25.48-2.12 8.782-3.48 17.255-4.09 25.36zm263.648-136.187c-2.27-9.399-4.98-18.496-8.14-27.215a256.208 256.208 0 00-27.231-8.14 334.423 334.423 0 0118.355 17.015 333.744 333.744 0 0117.016 18.34zm-106.41-67.75a264.844 264.844 0 00-24.672 13.293 334.438 334.438 0 0149.34 0 264.284 264.284 0 00-24.668-13.293zm92.492 251.52c-13.266 4.199-27.246 7.476-41.73 9.773-11.856 8.625-24.008 16.176-36.262 22.558 17.332 6.766 34.473 10.953 50.652 12.16 5.29-6.156 10.313-13.097 15.012-20.789 4.535-7.418 8.644-15.355 12.328-23.703zm-33.363-86.856c0-11.438-4.668-21.8-12.196-29.293a38.006 38.006 0 009.032-24.625c0-21.059-17.133-38.192-38.188-38.192h-65.828c-7.074 0-12.808 5.735-12.812 12.81v107.92c0 7.08 5.738 12.817 12.812 12.817h65.828c.578 0 1.14-.054 1.7-.129 22.015-.898 39.652-19.074 39.652-41.308zm-94.363-66.485h53.011c6.926 0 12.567 5.637 12.567 12.567 0 6.926-5.641 12.562-12.567 12.562H157.02zm53.011 82.211c-.48 0-.953.036-1.422.086h-51.59v-31.539h53.012c8.668 0 15.727 7.055 15.727 15.727s-7.059 15.726-15.727 15.726zm0 0"/></svg>
